svg/u1f396.svg

<svg viewBox="0 0 128 128" xmlns="http://www.w3.org/2000/svg">
  <path d="M35.96,3.19c-0.46,0.28-0.2,24.41,0.09,24.9c0.36,0.61,5.11,5.04,9.34,8.73 c3.31,2.88,6.23,0.86,6.78,0.86c1.25,0,22.25,0.23,22.88,0.23c0.26,0,3.98,2.17,7.11-0.49c4.45-3.8,9.8-8.57,9.89-9.27 c0.09-0.68,0.1-24.66-0.23-24.87c-0.15-0.1-3.94-0.16-9.23-0.22c-4.5-0.05-13.67,2.26-19.52,2.24c-7.5-0.02-11.79-2.36-17.63-2.31 C40.09,3.03,36.13,3.08,35.96,3.19z" fill="#176BC6"/>
  <path d="M45.42,2.96l-0.03,33.86c0,0,1.64,1.46,3.29,2.81c1.56,1.28,3.13,2.45,3.25,2.44 c1.09-0.08,23.76,0.48,24.23,0.25c0.26-0.13,1.95-1.46,3.54-2.77c1.23-1.02,2.48-2.1,2.48-2.1l0.45-34.41c0,0-2.84-0.01-6.56-0.04 c-0.02,0-9.26,1.08-12.76,1.09c-4.2,0.01-8.04-1.16-11.74-1.16C47.29,2.93,45.42,2.96,45.42,2.96z" fill="#FFFFFF"/>
  <path d="M51.82,42.1c-0.63-0.47-0.26-39.17-0.26-39.17s4.14-0.05,12.93-0.01c7.66,0.03,11.58,0.08,11.58,0.08 s0.36,38.64-0.03,39.27c-0.39,0.63-6.8,3.83-11.18,3.9S52.13,42.34,51.82,42.1z" fill="#DB0D2A"/>
  <path d="M64.25,52.54c2.08-0.12,12.26-9.96,12.07-10.28c-0.13-0.22-6.19-0.25-12.31-0.28 s-12.27-0.16-12.3,0.06C51.66,42.47,61.69,52.69,64.25,52.54z" fill="#FBC21F"/>
  <path d="M63.99,50.82c-0.69,0-1.16,1.3-1.57,2.18S51.68,76.93,51.55,77.14c-0.14,0.2-23.35,0.41-24.44,0.55 c-1.09,0.14-1.89,0.54-1.89,1.02s-0.15,1.46,0.46,1.93c0.61,0.48,19.42,16.04,19.42,16.38c0,0.34-6.14,24.95-6.07,25.5 c0.07,0.55,0.42,1.13,0.83,1.47c0.41,0.34,0.69,0.33,1.38,0.18c1.29-0.28,21.63-12.77,21.91-12.7c0.27,0.07,21.18,12.36,21.72,12.43 c0.55,0.07,1.16,0,1.56-0.28s0.81-1.35,0.6-2.1c-0.2-0.75-4.42-22.44-4.28-22.85c0.14-0.41,18.07-15.89,18.41-16.57 c0.34-0.68-0.31-2.28-0.92-2.76c-0.61-0.48-23.64-2.12-24.12-2.39c-0.48-0.27-10.02-23.74-10.15-24.22S64.74,50.82,63.99,50.82z" fill="#FBC21F"/>
  <path d="M54.45,77.27c0,0.52,6.48,13.43,6.89,13.43c0.41,0,2.86-1.02,2.86-1.02s0.07-33.2-0.14-32.86 C63.86,57.16,54.45,76.18,54.45,77.27z" fill="#FDEFAA"/>
  <path d="M67.95,90.98c-0.26-0.32,6-10.43,6.82-10.77c0.82-0.34,22.84,0.95,22.77,1.43 C97.47,82.11,68.22,91.32,67.95,90.98z" fill="#FDEFAA"/>
  <path d="M47.7,97.39c-0.33,0.29-5.18,20.66-4.91,21.13c0.27,0.48,18-20.93,17.93-21.34s0.07-4.23,0.07-4.23 S48.24,96.91,47.7,97.39z" fill="#FDEFAA"/>
  <path d="M66.02,89.69c-0.07-0.21-0.66-2.94-0.8-3.67c-0.14-0.69-0.62-1.45-1.31-1.45 c-0.66,0-1.16,0.71-1.38,1.66c-0.31,1.31-0.79,3.46-0.79,3.46s-2.56-0.22-3.14-0.24c-0.9-0.03-1.97,0.03-2.14,0.83 c-0.11,0.49,0.05,1.14,1.38,1.97c1.11,0.69,2.42,1.45,2.42,1.45s-0.39,1.45-0.69,2.76c-0.17,0.76-0.59,2.18,0.14,2.56 c0.72,0.38,1.56-0.24,2.38-1.04c0.53-0.51,1.76-1.69,1.76-1.69s1.54,1.17,2.12,1.64c0.7,0.57,1.8,0.93,2.35,0.45 c0.59-0.52,0.46-1.38,0.14-2.32c-0.35-1-1.04-2.49-1.04-2.49s2.38-1.5,2.82-1.81c0.45-0.31,0.97-1.04,0.66-1.83 c-0.21-0.54-1.11-0.73-1.87-0.59S66.02,89.69,66.02,89.69z" fill="#F6922C"/>
  <path d="M73.74,89.06c0.34,1.21,1.54,0.97,3.67,0.43c2.12-0.53,22.2-6.72,22.88-6.95 c0.74-0.25,1.88-1.11,1.54-2.12c-0.34-1.02-1.4-1.26-2.61-0.97c-1.21,0.29-21.14,7-22.45,7.48C75.92,87.25,73.4,87.85,73.74,89.06z" fill="#F6922C"/>
  <path d="M64.04,81.11c1.25-0.14,1.16-2.8,1.33-4.98c0.17-2.18,0.47-23.49,0.47-24.21 c0-0.78-0.47-2.03-1.54-2.03c-1.07,0-1.62,0.82-1.73,2.05c-0.11,1.24-0.01,22.47,0.07,23.85C62.78,77.99,62.85,81.25,64.04,81.11z" fill="#F6922C"/>
  <path d="M53.28,88.82c0.31-1.21-2.1-2.08-4.12-2.92c-2.02-0.85-21.03-7.6-21.72-7.83 c-0.74-0.24-1.99-0.23-2.33,0.78c-0.34,1.02,0.19,1.83,1.33,2.33s20.05,6.95,21.39,7.31C49.96,89.05,52.96,90.07,53.28,88.82z" fill="#F6922C"/>
  <path d="M58.07,100.98c-1.07-0.66-2.64,1.04-4.12,2.66s-14.1,17.48-14.55,18.05 c-0.48,0.62-0.96,1.97-0.11,2.62c0.84,0.66,1.86,0.27,2.71-0.64c0.85-0.91,13.21-16.67,13.99-17.82 C57.23,104.04,59.09,101.61,58.07,100.98z" fill="#F6922C"/>
  <path d="M69.89,100.64c-0.94,0.83,0.48,2.53,1.6,4.41c1.12,1.88,12.16,17.66,12.58,18.25 c0.45,0.64,1.6,1.49,2.48,0.87c0.88-0.62,0.8-1.7,0.18-2.77c-0.62-1.07-12.17-16.89-13.04-17.97 C72.3,101.72,70.79,99.85,69.89,100.64z" fill="#F6922C"/>
</svg>

<svg viewBox="0 0 128 128" xmlns="http://www.w3.org/2000/svg">
  <defs/>
  <path d="M35.96,3.19 C35.5,3.47 35.76,27.6 36.05,28.09 C36.41,28.7 41.16,33.13 45.39,36.82 C48.7,39.7 51.62,37.68 52.17,37.68 C53.42,37.68 74.42,37.91 75.05,37.91 C75.31,37.91 79.03,40.08 82.16,37.42 C86.61,33.62 91.96,28.85 92.05,28.15 C92.14,27.47 92.15,3.49 91.82,3.28 C91.67,3.18 87.88,3.12 82.59,3.06 C78.09,3.01 68.92,5.32 63.07,5.3 C55.57,5.28 51.28,2.94 45.44,2.99 C40.09,3.03 36.13,3.08 35.96,3.19 Z" fill="#176BC6"/>
  <path d="M45.42,2.96 L45.39,36.82 C45.39,36.82 47.03,38.28 48.68,39.63 C50.24,40.91 51.81,42.08 51.93,42.07 C53.02,41.99 75.69,42.55 76.16,42.32 C76.42,42.19 78.11,40.86 79.7,39.55 C80.93,38.53 82.18,37.45 82.18,37.45 L82.63,3.04 C82.63,3.04 79.79,3.03 76.07,3 C76.05,3 66.81,4.08 63.31,4.09 C59.11,4.1 55.27,2.93 51.57,2.93 C47.29,2.93 45.42,2.96 45.42,2.96 Z" fill="#FFFFFF"/>
  <path d="M51.82,42.1 C51.19,41.63 51.56,2.93 51.56,2.93 C51.56,2.93 55.7,2.88 64.49,2.92 C72.15,2.95 76.07,3 76.07,3 C76.07,3 76.43,41.64 76.04,42.27 C75.65,42.9 69.24,46.1 64.86,46.17 C60.48,46.24 52.13,42.34 51.82,42.1 Z" fill="#DB0D2A"/>
  <path d="M64.25,52.54 C66.33,52.42 76.51,42.58 76.32,42.26 C76.19,42.04 70.13,42.01 64.01,41.98 C57.89,41.95 51.74,41.82 51.71,42.04 C51.66,42.47 61.69,52.69 64.25,52.54 Z" fill="#FBC21F"/>
  <path d="M63.99,50.82 C63.3,50.82 62.83,52.12 62.42,53 C62.01,53.88 51.68,76.93 51.55,77.14 C51.41,77.34 28.2,77.55 27.11,77.69 C26.02,77.83 25.22,78.23 25.22,78.71 C25.22,79.19 25.07,80.17 25.68,80.64 C26.29,81.12 45.1,96.68 45.1,97.02 C45.1,97.36 38.96,121.97 39.03,122.52 C39.1,123.07 39.45,123.65 39.86,123.99 C40.27,124.33 40.55,124.32 41.24,124.17 C42.53,123.89 62.87,111.4 63.15,111.47 C63.42,111.54 84.33,123.83 84.87,123.9 C85.42,123.97 86.03,123.9 86.43,123.62 C86.83,123.34 87.24,122.27 87.03,121.52 C86.83,120.77 82.61,99.08 82.75,98.67 C82.89,98.26 100.82,82.78 101.16,82.1 C101.5,81.42 100.85,79.82 100.24,79.34 C99.63,78.86 76.6,77.22 76.12,76.95 C75.64,76.68 66.1,53.21 65.97,52.73 C65.84,52.25 64.74,50.82 63.99,50.82 Z" fill="#FBC21F"/>
  <path d="M54.45,77.27 C54.45,77.79 60.93,90.7 61.34,90.7 C61.75,90.7 64.2,89.68 64.2,89.68 C64.2,89.68 64.27,56.48 64.06,56.82 C63.86,57.16 54.45,76.18 54.45,77.27 Z" fill="#FDEFAA"/>
  <path d="M67.95,90.98 C67.69,90.66 73.95,80.55 74.77,80.21 C75.59,79.87 97.61,81.16 97.54,81.64 C97.47,82.11 68.22,91.32 67.95,90.98 Z" fill="#FDEFAA"/>
  <path d="M47.7,97.39 C47.37,97.68 42.52,118.05 42.79,118.52 C43.06,119 60.79,97.59 60.72,97.18 C60.65,96.77 60.79,92.95 60.79,92.95 C60.79,92.95 48.24,96.91 47.7,97.39 Z" fill="#FDEFAA"/>
  <path d="M66.02,89.69 C65.95,89.48 65.36,86.75 65.22,86.02 C65.08,85.33 64.6,84.57 63.91,84.57 C63.25,84.57 62.75,85.28 62.53,86.23 C62.22,87.54 61.74,89.69 61.74,89.69 C61.74,89.69 59.18,89.47 58.6,89.45 C57.7,89.42 56.63,89.48 56.46,90.28 C56.35,90.77 56.51,91.42 57.84,92.25 C58.95,92.94 60.26,93.7 60.26,93.7 C60.26,93.7 59.87,95.15 59.57,96.46 C59.4,97.22 58.98,98.64 59.71,99.02 C60.43,99.4 61.27,98.78 62.09,97.98 C62.62,97.47 63.85,96.29 63.85,96.29 C63.85,96.29 65.39,97.46 65.97,97.93 C66.67,98.5 67.77,98.86 68.32,98.38 C68.91,97.86 68.78,97 68.46,96.06 C68.11,95.06 67.42,93.57 67.42,93.57 C67.42,93.57 69.8,92.07 70.24,91.76 C70.69,91.45 71.21,90.72 70.9,89.93 C70.69,89.39 69.79,89.2 69.03,89.34 C68.27,89.48 66.02,89.69 66.02,89.69 Z" fill="#F6922C"/>
  <path d="M73.74,89.06 C74.08,90.27 75.28,90.03 77.41,89.49 C79.53,88.96 99.61,82.77 100.29,82.54 C101.03,82.29 102.17,81.43 101.83,80.42 C101.49,79.4 100.43,79.16 99.22,79.45 C98.01,79.74 78.08,86.45 76.77,86.93 C75.92,87.25 73.4,87.85 73.74,89.06 Z" fill="#F6922C"/>
  <path d="M64.04,81.11 C65.29,80.97 65.2,78.31 65.37,76.13 C65.54,73.95 65.84,52.64 65.84,51.92 C65.84,51.14 65.37,49.89 64.3,49.89 C63.23,49.89 62.68,50.71 62.57,51.94 C62.46,53.18 62.56,74.41 62.64,75.79 C62.78,77.99 62.85,81.25 64.04,81.11 Z" fill="#F6922C"/>
  <path d="M53.28,88.82 C53.59,87.61 51.18,86.74 49.16,85.9 C47.14,85.05 28.13,78.3 27.44,78.07 C26.7,77.83 25.45,77.84 25.11,78.85 C24.77,79.87 25.3,80.68 26.44,81.18 C27.58,81.68 46.49,88.13 47.83,88.49 C49.96,89.05 52.96,90.07 53.28,88.82 Z" fill="#F6922C"/>
  <path d="M58.07,100.98 C57,100.32 55.43,102.02 53.95,103.64 C52.47,105.26 39.85,121.12 39.4,121.69 C38.92,122.31 38.44,123.66 39.29,124.31 C40.13,124.97 41.15,124.58 42,123.67 C42.85,122.76 55.21,107 55.99,105.85 C57.23,104.04 59.09,101.61 58.07,100.98 Z" fill="#F6922C"/>
  <path d="M69.89,100.64 C68.95,101.47 70.37,103.17 71.49,105.05 C72.61,106.93 83.65,122.71 84.07,123.3 C84.52,123.94 85.67,124.79 86.55,124.17 C87.43,123.55 87.35,122.47 86.73,121.4 C86.11,120.33 74.56,104.51 73.69,103.43 C72.3,101.72 70.79,99.85 69.89,100.64 Z" fill="#F6922C"/>
</svg>
